src/lib/packages/icons/src/assets/line/shopping-basket-plus.svg

<svg xmlns="http://www.w3.org/2000/svg" width="24" height="24" fill="none"><path fill="currentColor" d="M21.75 9A2.752 2.752 0 0 0 19 6.25h-2.133l-2.163-3.634a.75.75 0 1 0-1.289.767l1.706 2.866H8.97l1.731-2.862a.75.75 0 0 0-1.283-.777L7.217 6.248H5a2.752 2.752 0 0 0-2.75 2.75c0 1.089.641 2.024 1.562 2.469l.69 6.904c.227 2.272 1.447 3.377 3.731 3.377h7.57c2.284 0 3.505-1.104 3.731-3.377l.692-6.925A2.738 2.738 0 0 0 21.75 9ZM5 7.75h14c.689 0 1.25.561 1.25 1.25s-.561 1.25-1.25 1.25H5c-.689 0-1.25-.561-1.25-1.25S4.311 7.75 5 7.75Zm13.043 10.474c-.129 1.283-.536 2.026-2.239 2.026h-7.57c-1.712 0-2.107-.712-2.239-2.026l-.647-6.474h13.343l-.648 6.474ZM14.75 16a.75.75 0 0 1-.75.75h-1.25V18a.75.75 0 0 1-1.5 0v-1.25H10a.75.75 0 0 1 0-1.5h1.25V14a.75.75 0 0 1 1.5 0v1.25H14a.75.75 0 0 1 .75.75Z"/></svg>

<svg width="24" height="24" viewBox="0 0 24 24" fill="none" xmlns="http://www.w3.org/2000/svg">
<path d="M21.75 9C21.75 7.483 20.517 6.25 19 6.25H16.8669L14.704 2.616C14.492 2.261 14.033 2.142 13.676 2.355C13.321 2.567 13.203 3.027 13.415 3.383L15.121 6.24899H8.96997L10.701 3.387C10.916 3.033 10.802 2.572 10.448 2.357C10.091 2.142 9.63197 2.256 9.41797 2.61L7.21704 6.248H5C3.483 6.248 2.25 7.481 2.25 8.998C2.25 10.087 2.89101 11.022 3.81201 11.467L4.50195 18.371C4.72895 20.643 5.94903 21.748 8.23303 21.748H15.803C18.087 21.748 19.3081 20.644 19.5341 18.371L20.226 11.446C21.126 10.995 21.75 10.073 21.75 9ZM5 7.75H19C19.689 7.75 20.25 8.311 20.25 9C20.25 9.689 19.689 10.25 19 10.25H5C4.311 10.25 3.75 9.689 3.75 9C3.75 8.311 4.311 7.75 5 7.75ZM18.043 18.224C17.914 19.507 17.507 20.25 15.804 20.25H8.23401C6.52201 20.25 6.127 19.538 5.995 18.224L5.34802 11.75H18.691L18.043 18.224ZM14.75 16C14.75 16.414 14.414 16.75 14 16.75H12.75V18C12.75 18.414 12.414 18.75 12 18.75C11.586 18.75 11.25 18.414 11.25 18V16.75H10C9.586 16.75 9.25 16.414 9.25 16C9.25 15.586 9.586 15.25 10 15.25H11.25V14C11.25 13.586 11.586 13.25 12 13.25C12.414 13.25 12.75 13.586 12.75 14V15.25H14C14.414 15.25 14.75 15.586 14.75 16Z" fill="currentColor"/>
</svg>
